icons/spotify.svg

<svg id="Layer_1" xmlns="http://www.w3.org/2000/svg" viewBox="0 0 2931 2931" width="16" height="16"><style>.st0{fill:#2ebd59}</style><path class="st0" d="M1465.5 0C656.1 0 0 656.1 0 1465.5S656.1 2931 1465.5 2931 2931 2274.9 2931 1465.5C2931 656.2 2274.9.1 1465.5 0zm672.1 2113.6c-26.3 43.2-82.6 56.7-125.6 30.4-344.1-210.3-777.3-257.8-1287.4-141.3-49.2 11.3-98.2-19.5-109.4-68.7-11.3-49.2 19.4-98.2 68.7-109.4C1242.1 1697.1 1721 1752 2107.3 1988c43 26.5 56.7 82.6 30.3 125.6zm179.3-398.9c-33.1 53.8-103.5 70.6-157.2 37.6-393.8-242.1-994.4-312.2-1460.3-170.8-60.4 18.3-124.2-15.8-142.6-76.1-18.2-60.4 15.9-124.1 76.2-142.5 532.2-161.5 1193.9-83.3 1646.2 194.7 53.8 33.1 70.8 103.4 37.7 157.1zm15.4-415.6c-472.4-280.5-1251.6-306.3-1702.6-169.5-72.4 22-149-18.9-170.9-91.3-21.9-72.4 18.9-149 91.4-171 517.7-157.1 1378.2-126.8 1922 196 65.1 38.7 86.5 122.8 47.9 187.8-38.5 65.2-122.8 86.7-187.8 48z"/></svg>

<svg viewBox="0 0 24 24" version="1.1" xmlns="http://www.w3.org/2000/svg" xmlns:xlink="http://www.w3.org/1999/xlink">
    <g stroke="none" stroke-width="1" fill="none" fill-rule="evenodd">
        <g id="spotify" fill-rule="nonzero">
            <path d="M1465.5,0 C656.1,0 0,656.1 0,1465.5 C0,2274.9 656.1,2931 1465.5,2931 C2274.9,2931 2931,2274.9 2931,1465.5 C2931,656.2 2274.9,0.1 1465.5,0 Z" id="Path" fill="#2EBD59"></path>
            <path d="M2137.6,2113.6 C2111.3,2156.8 2055,2170.3 2012,2144 C1667.9,1933.7 1234.7,1886.2 724.6,2002.7 C675.4,2014 626.4,1983.2 615.2,1934 C603.9,1884.8 634.6,1835.8 683.9,1824.6 C1242.1,1697.1 1721,1752 2107.3,1988 C2150.3,2014.5 2164,2070.6 2137.6,2113.6 Z" id="Path" fill="#000000"></path>
            <path d="M2316.9,1714.7 C2283.8,1768.5 2213.4,1785.3 2159.7,1752.3 C1765.9,1510.2 1165.3,1440.1 699.4,1581.5 C639,1599.8 575.2,1565.7 556.8,1505.4 C538.6,1445 572.7,1381.3 633,1362.9 C1165.2,1201.4 1826.9,1279.6 2279.2,1557.6 C2333,1590.7 2350,1661 2316.9,1714.7 Z" id="Path" fill="#000000"></path>
            <path d="M2332.3,1299.1 C1859.9,1018.6 1080.7,992.8 629.7,1129.6 C557.3,1151.6 480.7,1110.7 458.8,1038.3 C436.9,965.9 477.7,889.3 550.2,867.3 C1067.9,710.2 1928.4,740.5 2472.2,1063.3 C2537.3,1102 2558.7,1186.1 2520.1,1251.1 C2481.6,1316.3 2397.3,1337.8 2332.3,1299.1 Z" id="Path" fill="#000000"></path>
        </g>
    </g>
</svg>
